!!!COM: Mozart, Wolfgang Amadeus
!!!OTL: String Quartet No. 11 in E-flat Major
!!!OMD: Adagio
!!!OMV: 1a
!!!SCT1: K<sup>1</sup> 171
!!!SCA: Chronologisch-thematisches Verzeichnis sämtlicher Tonwerke Wolfgang Amade Mozarts (L. von Köchel; 1862, 2/1905, 3/1937, 1947)
!!!SCT2: K<sup>6</sup> 171
!!!YOR: Breitkopf & Härtel Edition
!!!ENC: Frances Bennion
!!!CDT: 1756/1/27/-1791/12/5/
!!!OCY: Österreich
!!!YEC: Copyright (c) 1994, 2000 Center for Computer Assisted Research in the Humanities
!!!YEM: Rights to all derivative editions reserved.
!!!YEM: Refer to licensing agreement for further details.
!!!YEN: United States of America
**kern	**kern	**kern	**kern
*k[b-e-a-]	*k[b-e-a-]	*k[b-e-a-]	*k[b-e-a-]
*E-:	*E-:	*E-:	*E-:
*clefC	*clefF	*clefG	*clefG
*M4/4	*M4/4	*M4/4	*M4/4
4E-	4e-	4e-	4e-
4BB	4B	4B	4B
4C	4c	4c	4c
4r	4r	4r	4r
=2	=2	=2	=2
4E-	4e-	4e-	4e-
4AA	4A	4A	4A
4BB-	4B-	4B-	4B-
4r	4r	4r	4r
=3	=3	=3	=3
2.r	2.r	2.r	4cc
.	.	.	4f
.	.	.	4a-
4AA-	4F	[4B-	4d
=4	=4	=4	=4
4GG	4G	8B-]	8e-
.	.	4g	4b-
4D	2B-	.	.
.	.	8f	8a-
4E-	.	8f	8a-
.	.	8e-	8g
4BB-	4B-	4d	4f
=5	=5	=5	=5
4E-	4e-	4e-	4e-
4BB	4B	4B	4B
4C	4c	4c	4c
4r	4r	4r	4r
=6	=6	=6	=6
4E-	4e-	4e-	4e-
4BB-	4B-	4B-	4B-
4AA	4A	4A	4A
4r	4r	4r	4r
=7	=7	=7	=7
2.r	2.r	2.r	4gg
.	.	.	4cc
.	.	.	4ee-
4E-	4c	[4f	4a
=8	=8	=8	=8
8D	4.B-	8f]	8b-
8E-	.	8g	8ee-
4F	.	4f	8dd
.	8A	.	8cc
8BB-	4B-	16r	4b-
.	.	16f	.
8r	.	16g	.
.	.	16f	.
8BB-	4r	16e-	8r
.	.	16d	.
8r	.	16c	8dd
.	.	16B-	.
=9	=9	=9	=9
8C	2r	16r	16.ee-
.	.	16e-	.
.	.	.	32cc
8r	.	16f	8a
.	.	16e-	.
8F	.	16d	8r
.	.	16c	.
8r	.	16B-	8ff
.	.	16A	.
8BB-	[2F	16r	8ee-
.	.	16f	.
8r	.	16g	8dd
.	.	16f	.
8BB-	.	16e-	8r
.	.	16d	.
8r	.	16c	8dd
.	.	16B-	.
=10	=10	=10	=10
8C	2F]	16r	16.ee-
.	.	16e-	.
.	.	.	32cc
8r	.	16f	8a
.	.	16e-	.
8FF	.	16d	8r
.	.	16c	.
8r	.	16B-	8ff
.	.	16A	.
8BB-	[2B-	16r	8ee-
.	.	16f	.
8r	.	16g	8dd
.	.	16f	.
8BB-	.	16e-	8r
.	.	16d	.
8r	.	16c	8b-
.	.	16B-	.
=11	=11	=11	=11
8A-	1B-_	16r	4.b-
.	.	16f	.
8r	.	16g	.
.	.	16f	.
8A-	.	16e-	.
.	.	16d	.
8r	.	16c	8b-
.	.	16B-	.
8G	.	16r	16b-
.	.	16e-	16ee-
8r	.	16g	8b-
.	.	16b-	.
8E-	.	16a-	8r
.	.	16g	.
8r	.	16f	[8gg
.	.	16e-	.
=12	=12	=12	=12
8F	1B-]	16r	8gg]
.	.	16e-	.
8r	.	16d	4aa-
.	.	16e-	.
8BB-	.	16f	.
.	.	16g	.
8r	.	16a-	8dd
.	.	16f	.
8GG	.	16r	8ee-
.	.	16e-	.
8r	.	16g	8b-
.	.	16b-	.
8EE-	.	16a-	8r
.	.	16g	.
8r	.	16f	8b-
.	.	16e-	.
=13	=13	=13	=13
8C	1F	16r	4ee-
.	.	16A	.
8r	.	16c	.
.	.	16e-	.
8FF	.	16d	8r
.	.	16c	.
8r	.	16B-	8e-
.	.	16A	.
8BB-	.	16r	4d
.	.	16B-	.
8r	.	16d	.
.	.	16f	.
8BB-	.	16e-	8r
.	.	16d	.
8r	.	16c	8b-
.	.	16B-	.
=14	=14	=14	=14
4C	4F	4A	4ee-
8r	8r	8r	8r
8C	4.F	8A	8e-
4BB-	.	4A-	4d
4r	4r	4r	4r
=15	=15	=15	=15
*M3/4	*M3/4	*M3/4	*M3/4
2.r	2.r	2.r	2.e-
=16	=16	=16	=16
2.r	2.r	2.r	[2.a-
=17	=17	=17	=17
2.r	2.r	2.B-	2.a-]
=18	=18	=18	=18
2.r	2.r	[2.e-	[2.g
=19	=19	=19	=19
2.r	2.E-	2.e-]	2.g]
=20	=20	=20	=20
2.r	[2.A-	2.c	2.f
=21	=21	=21	=21
2.BB-	2.A-]	[2.B-	2.d
=22	=22	=22	=22
2.E-	2.G	2.B-]	2.e-
=23	=23	=23	=23
2.r	4r	2.r	2ccc
.	4a-	.	.
.	4f	.	16bb-
.	.	.	16aa-
.	.	.	16gg
.	.	.	16ff
=24	=24	=24	=24
2.r	4b-	2.r	4ee-
.	4a-	.	4dd
.	4g	.	4ee-
=25	=25	=25	=25
2.r	4f	2.r	8b-
.	.	.	8a-
.	4d	.	8r
.	.	.	8f
.	4e-	.	8g
.	.	.	8e-
=26	=26	=26	=26
2.r	4f	2.r	8b-
.	.	.	8a-
.	4d	.	8r
.	.	.	8f
.	4e-	.	8g
.	.	.	8e-
=27	=27	=27	=27
2.r	4B-	2.r	8.d
.	.	.	16e-
.	4G	.	4.e-
.	4E-	.	.
.	.	.	16d
.	.	.	16e-
=28	=28	=28	=28
2.r	4B-	2b-	8f
.	.	.	8d
.	4d	.	4B-
.	4B-	4bb-	4r
=29	=29	=29	=29
2.r	4F	8bb-	2.r
.	.	8aa	.
.	2r	8gg	.
.	.	8ff	.
.	.	8ee-	.
.	.	8dd	.
=30	=30	=30	=30
2.r	[2.e-	8cc	4r
.	.	8ee-	.
.	.	4gg	4cc
.	.	4gg	4b-
=31	=31	=31	=31
2.r	4e-]	8.gg	4a
.	.	32ff	.
.	.	32gg	.
.	4d	4ff	4b-
.	4B-	4r	4dd
=32	=32	=32	=32
2.r	4r	2f	4r
.	4A	.	4cc
.	4F	4ee-	4a
=33	=33	=33	=33
2.r	4B-	8ee-	[2.b-
.	.	8dd	.
.	4G	8ff	.
.	.	8ee-	.
.	4D	8gg	.
.	.	8ff	.
=34	=34	=34	=34
2.r	4E-	4gg	4b-]
.	2r	8ff	8a
.	.	8ee-	8g
.	.	8dd	8f
.	.	8cc	8e-
=35	=35	=35	=35
2.r	4r	2b-	2d
.	4f	.	.
.	4F	4a	4c
=36	=36	=36	=36
4F	4A	8f	8ff
.	.	8e-	8ee-
4G	4B-	2e-	2ee-
4A	4c	.	.
=37	=37	=37	=37
4B-	4f	8d	8dd
.	.	8b-	8bb-
4c	4e-	8a	8aa
.	.	8b-	8bb-
4d	4f	8a	8aa
.	.	8b-	8bb-
=38	=38	=38	=38
4F	4A	8f	8ff
.	.	8e-	8ee-
4G	4B-	2e-	2ee-
4A	4c	.	.
=39	=39	=39	=39
4B-	4f	8d	8dd
.	.	8b-	8bb-
4c	4e-	8a	8aa
.	.	8b-	8bb-
4d	4f	8a	8aa
.	.	8b-	8bb-
=40	=40	=40	=40
4.E-	4G	4.c	4.cc
.	4r	.	.
8D	.	8d	8dd
4C	4g	4e-	4ee-
=41	=41	=41	=41
4F	4d	4B-	4b-
4E-	4c	4A	4a
4D	4f	4B-	4b-
=42	=42	=42	=42
4C	4c	4e-	4ee-
2F	4B-	4d	4dd
.	4A	4c	4cc
=43	=43	=43	=43
2.BB-	2A	2c	2cc
.	4B-	4d	4dd
=44	=44	=44	=44
4FF	8f	4A	8ff
.	8e-	.	8ee-
4GG	2e-	4B-	2ee-
4AA	.	4c	.
=45	=45	=45	=45
4BB-	8d	4d	8dd
.	8b-	.	8bb-
4C	8a	4e-	8aa
.	8b-	.	8bb-
4D	8a	4f	8aa
.	8b-	.	8bb-
=46	=46	=46	=46
4FF	8f	4A	8ff
.	8e-	.	8ee-
4GG	2e-	4B-	2ee-
4AA	.	4c	.
=47	=47	=47	=47
4BB-	8d	4d	8dd
.	8b-	.	8bb-
4C	8a	4e-	8aa
.	8b-	.	8bb-
4D	8a	4f	8aa
.	8b-	.	8bb-
=48	=48	=48	=48
4.E-	4.g	4.c	4.cc
8D	8f	8d	8dd
4C	4e-	4e-	4ee-
=49	=49	=49	=49
4F	4d	4B-	4b-
4E-	4c	4A	4a
4D	4f	4B-	4b-
=50	=50	=50	=50
4E-	4e-	4c	4ee-
4F	4d	4B-	4dd
4FF	4c	4A	4cc
=51	=51	=51	=51
4BB-	4B-	4B-	4b-
2r	2r	4f	4ff
.	.	4f#	4ff#
=52	=52	=52	=52
2.r	2.r	4g	4gg
.	.	4a	4aa
.	.	4b-	4bb-
=53	=53	=53	=53
4r	4r	[2.G	[2.g
4E-	4g	.	.
4D	4f	.	.
=54	=54	=54	=54
2C	4e-	4G]	4g]
.	8g	8e-	8ee-
.	8e-	8c	8cc
4F	8d	8B-	8b-
.	8c	8A	8a
=55	=55	=55	=55
4BB-	4B-	4B-	4b-
2r	2r	4f	4ff
.	.	4f#	4ff#
=56	=56	=56	=56
2.r	2.r	4g	4gg
.	.	4a	4aa
.	.	4b-	4bb-
=57	=57	=57	=57
4r	4r	[2.G	[2.g
4E-	4g	.	.
4D	4f	.	.
=58	=58	=58	=58
2C	4e-	4G]	4g]
.	8g	8e-	8ee-
.	8e-	8c	8cc
4F	8d	8B-	8b-
.	8c	8A	8a
=59	=59	=59	=59
4BB-	4B-	4B-	8.b-
.	.	.	32a
.	.	.	32b-
2r	2r	2r	8cc
.	.	.	8a
.	.	.	8g
.	.	.	8f
=60	=60	=60	=60
2.r	2.r	8.b-	8.dd
.	.	32a	32cc
.	.	32b-	32dd
.	.	8cc	8ee-
.	.	8a	8cc
.	.	8g	8b-
.	.	8f	8a
=61	=61	=61	=61
4BB-	4B-	8.dd	8.ff
.	.	32cc	32ee-
.	.	32dd	32ff
4E-	8e-	8ee-	8gg
.	8g	8cc	8ee-
4F	8f	8b-	8dd
.	8e-	8a	8cc
=62	=62	=62	=62
4BB-	4d	4b-	4b-
2r	2r	2r	2r
=63	=63	=63	=63
2.D	[2.B-	4r	4r
.	.	4a-	4ff
.	.	4f	4a-
=64	=64	=64	=64
2.E-	2.B-]	4f	4a-
.	.	4e-	4g
.	.	4e-	4g
=65	=65	=65	=65
[2.AA-	2A-	4r	4r
.	.	4e-	4cc
.	4G	4c	4e-
=66	=66	=66	=66
2.AA-]	2.F	4c	4e-
.	.	4B-	4d
.	.	4B-	4d
=67	=67	=67	=67
2.GG	2.G	4r	4r
.	.	4B-	4e-
.	.	4e-	4b-
=68	=68	=68	=68
2.D	[2.B-	4r	4r
.	.	4B-	4f
.	.	4f	4a-
=69	=69	=69	=69
2.E-	2.B-_	4r	4r
.	.	4G	4e-
.	.	4e-	4g
=70	=70	=70	=70
4BB-	4B-]	8d	4f
.	.	8e-	.
2r	2r	8f	4r
.	.	8e-	.
.	.	8d	8.ff
.	.	8B-	.
.	.	.	32ee-
.	.	.	32ff
=71	=71	=71	=71
2.r	2.r	8e-	4gg
.	.	8d	.
.	.	8e-	4r
.	.	8c	.
.	.	8f	8.aa
.	.	8e-	.
.	.	.	32gg
.	.	.	32aa
=72	=72	=72	=72
2.r	2.r	8d	4bb-
.	.	8e-	.
.	.	8f	4r
.	.	8e-	.
.	.	8d	8.ff
.	.	8B-	.
.	.	.	32ee-
.	.	.	32ff
=73	=73	=73	=73
2.r	2.r	8e-	4gg
.	.	8d	.
.	.	8e-	4r
.	.	8c	.
.	.	4f	8.a
.	.	.	32g
.	.	.	32a
=74	=74	=74	=74
2.r	2.r	4B-	4b-
.	.	2r	2r
=75	=75	=75	=75
2.r	2.r	2.r	2.e-
=76	=76	=76	=76
2.r	2.r	2.r	[2.a-
=77	=77	=77	=77
2.r	2.r	2.B-	2.a-]
=78	=78	=78	=78
2.r	2.r	[2.e-	[2.g
=79	=79	=79	=79
2.r	2.E-	2.e-]	2.g]
=80	=80	=80	=80
2.r	[2.A-	2.c	2.f
=81	=81	=81	=81
2.BB-	2.A-]	[2.B-	2.d
=82	=82	=82	=82
2.E-	2.G	2.B-]	2.e-
=83	=83	=83	=83
2.r	4r	2.r	2ccc
.	4a-	.	.
.	4f	.	16bb-
.	.	.	16aa-
.	.	.	16gg
.	.	.	16ff
=84	=84	=84	=84
2.r	4b-	2.r	4ee-
.	4a-	.	4dd
.	4g	.	4ee-
=85	=85	=85	=85
2.r	4f	2.r	8b-
.	.	.	8a-
.	4d	.	8r
.	.	.	8f
.	4e-	.	8g
.	.	.	8e-
=86	=86	=86	=86
2.r	4f	2.r	8b-
.	.	.	8a-
.	4d	.	8r
.	.	.	8f
.	4e-	.	8g
.	.	.	8e-
=87	=87	=87	=87
2.r	4B-	2.r	8.d
.	.	.	16e-
.	4G	.	4.e-
.	4E-	.	.
.	.	.	16d
.	.	.	16e-
=88	=88	=88	=88
2.r	4D	2B-	8f
.	.	.	8d
.	4B-	.	4B-
.	4d	4b-	4r
=89	=89	=89	=89
2.r	4f	8b-	2e-
.	.	8a	.
.	4F	8g	.
.	.	8f	.
.	4A	4f	4ee-
=90	=90	=90	=90
2.r	4B-	2f	8ee-
.	.	.	8dd
.	4d	.	8cc
.	.	.	8b-
.	4D	4a-	4b-
=91	=91	=91	=91
2.r	4E-	8.a-	4.b-
.	.	32g	.
.	.	32a-	.
.	8G	4g	.
.	8B-	.	8g
.	8A-	4r	8f
.	8F	.	8d
=92	=92	=92	=92
2.r	4E-	2e-	4e-
.	4G	.	4B-
.	4A	4ee-	4c
=93	=93	=93	=93
2.r	2.B-	8ee-	4B-
.	.	8dd	.
.	.	8cc	2r
.	.	8b-	.
.	.	8a-	.
.	.	8g	.
=94	=94	=94	=94
2.r	[2.A-	2f	4r
.	.	.	4f
.	.	4cc	4e-
=95	=95	=95	=95
2.r	4A-]	8.cc	4d
.	.	32b-	.
.	.	32cc	.
.	4G	4b-	4e-
.	4E-	4r	4g
=96	=96	=96	=96
2.r	4r	2B-	4r
.	4d	.	4f
.	4B-	4a-	4d
=97	=97	=97	=97
2.r	4E-	8a-	[2.e-
.	.	8g	.
.	4c	8b-	.
.	.	8a-	.
.	4G	8cc	.
.	.	8b-	.
=98	=98	=98	=98
2.r	4A-	8dd	4e-]
.	.	8cc	.
.	4r	8ee	8g
.	.	8ff	8a-
.	4F	8aa-	8cc
.	.	8ff	8a-
=99	=99	=99	=99
2.r	4B-	2ee-	2g
.	4b-	.	.
.	4B-	4dd	4f
=100	=100	=100	=100
4BB-	4D	8B-	8b-
.	.	8A-	8a-
4C	4E-	2A-	2a-
4D	4F	.	.
=101	=101	=101	=101
4E-	4B-	8G	8g
.	.	8e-	8ee-
4F	4A-	8d	8dd
.	.	8e-	8ee-
4G	4B-	8d	8dd
.	.	8e-	8ee-
=102	=102	=102	=102
4BB-	4D	8B-	8b-
.	.	8A-	8a-
4C	4E-	2A-	2a-
4D	4F	.	.
=103	=103	=103	=103
4E-	4B-	8G	8g
.	.	8e-	8ee-
4F	4A-	8d	8dd
.	.	8e-	8ee-
4G	4B-	8d	8dd
.	.	8e-	8ee-
=104	=104	=104	=104
4.AA-	4.F	4.c	4.f
8GG	8G	8B-	8g
4FF	4A-	4A-	4a-
=105	=105	=105	=105
4BB-	4G	2.B-	4e-
4AA-	4F	.	4d
4GG	4E-	.	4e-
=106	=106	=106	=106
4AA-	2E-	4c	4a-
2BB-	.	2B-	4g
.	4D	.	4f
=107	=107	=107	=107
2.EE-	2D	2.B-	2f
.	4E-	.	4g
=108	=108	=108	=108
4B-	8b-	4d	8bb-
.	8a-	.	8aa-
4c	2a-	4e-	2aa-
4d	.	4f	.
=109	=109	=109	=109
4e-	8g	4g	8gg
.	8ee-	.	8eee-
4f	8dd	4a-	8ddd
.	8ee-	.	8eee-
4g	8dd	4b-	8ddd
.	8ee-	.	8eee-
=110	=110	=110	=110
4B-	8b-	4d	8bb-
.	8a-	.	8aa-
4c	2a-	4e-	2aa-
4d	.	4f	.
=111	=111	=111	=111
4e-	8g	4g	8gg
.	8ee-	.	8eee-
4f	8dd	4a-	8ddd
.	8ee-	.	8eee-
4g	8dd	4b-	8ddd
.	8ee-	.	8eee-
=112	=112	=112	=112
4.A-	4.f	4.cc	4.ff
8G	8g	8b-	8gg
4F	4a-	4a-	4aa-
=113	=113	=113	=113
4B-	4e-	4g	4ee-
4A-	4d	4f	4dd
4G	4e-	4e-	4ee-
=114	=114	=114	=114
4F	4a-	4f	4aa-
4B-	4g	4e-	4gg
4BB-	4f	4d	4ff
=115	=115	=115	=115
4E-	4e-	4e-	4ee-
2r	2r	4b-	4bb-
.	.	4b	4bb
=116	=116	=116	=116
2.r	2.r	4cc	4ccc
.	.	4dd	4ddd
.	.	4ee-	4eee-
=117	=117	=117	=117
4r	4r	[2.c	[2.cc
4A-	4c	.	.
4G	4B-	.	.
=118	=118	=118	=118
2F	4A-	4c]	4cc]
.	8c	8a-	8aa-
.	8A-	8f	8ff
4BB-	8G	8e-	8ee-
.	8F	8d	8dd
=119	=119	=119	=119
4E-	4G	4e-	4ee-
2r	4B-	4b-	2r
.	4B	4b	.
=120	=120	=120	=120
2.r	4c	4cc	2.r
.	4d	4dd	.
.	4e-	4ee-	.
=121	=121	=121	=121
4r	[2.C	[2.c	2.r
4AA-	.	.	.
4GG	.	.	.
=122	=122	=122	=122
2FF	4C]	4c]	2.r
.	8c	8a-	.
.	8A-	8f	.
4BB-	8G	8e-	.
.	8F	8d	.
=123	=123	=123	=123
4EE-	4E-	4e-	8.ee-
.	.	.	32dd
.	.	.	32ee-
2r	2r	2r	8ff
.	.	.	8dd
.	.	.	8cc
.	.	.	8b-
=124	=124	=124	=124
2.r	2.r	8.ee-	8.gg
.	.	32dd	32ff
.	.	32ee-	32gg
.	.	8ff	8aa-
.	.	8dd	8ff
.	.	8cc	8ee-
.	.	8b-	8dd
=125	=125	=125	=125
4E-	4.e-	8.gg	8.bb-
.	.	32ff	32aa-
.	.	32gg	32bb-
4AA-	.	8aa-	8ccc
.	8c	8ff	8aa-
4BB-	8B-	8ee-	8gg
.	8A-	8dd	8ff
=126	=126	=126	=126
4EE-	4G	4ee-	4ee-
2r	2r	2r	2r
=127	=127	=127	=127
2.r	2.r	2.r	2.e-
=128	=128	=128	=128
2.r	2.r	2.r	[2.a-
=129	=129	=129	=129
2.r	2.r	2.B-	2.a-]
=130	=130	=130	=130
2.r	2.r	[2.e-	[2.g
=131	=131	=131	=131
2.r	2.E-	2.e-]	2.g]
=132	=132	=132	=132
2.r	[2.A-	2.c	2.f
=133	=133	=133	=133
2.BB-	2.A-]	[2.B-	2.d
=134	=134	=134	=134
2.E-	2.G	2.B-]	2.e-
=135	=135	=135	=135
2.r	2.r	4r	2ccc
.	.	4a-	.
.	.	4f	16bb-
.	.	.	16aa-
.	.	.	16gg
.	.	.	16ff
=136	=136	=136	=136
2.r	2.r	4b-	4ee-
.	.	4a-	4dd
.	.	4g	4ee-
=137	=137	=137	=137
2.r	2.r	4f	8bb-
.	.	.	8aa-
.	.	4d	8r
.	.	.	8ff
.	.	4e-	8gg
.	.	.	8ee-
=138	=138	=138	=138
2.r	2.r	4B-	8bb-
.	.	.	8aa-
.	.	4d	8r
.	.	.	8ff
.	.	4e-	8gg
.	.	.	8ee-
=139	=139	=139	=139
2.r	2.r	4a-	8.cc
.	.	.	16ff
.	.	4b-	4ee-
.	.	4B-	4dd
=140	=140	=140	=140
4F	4f	4c	8b-
.	.	.	8a-
4BB-	4A-	4d	8r
.	.	.	8f
4E-	4G	4e-	8g
.	.	.	8e-
=141	=141	=141	=141
4F	4F	4c	8b-
.	.	.	8a-
4BB-	4A-	4d	8r
.	.	.	8f
4E-	4G	4e-	8g
.	.	.	8e-
=142	=142	=142	=142
4AA-	8r	8.c	8.c
.	8c	.	.
.	.	16f	16a-
4BB-	4B-	4e-	4g
4BB-	4B-	4d	4f
=143	=143	=143	=143
*M4/4	*M4/4	*M4/4	*M4/4
4E-	4e-	4e-	4e-
4BB	4B	4B	4B
4C	4c	4c	4c
4r	4r	4r	4r
=144	=144	=144	=144
4E-	4e-	4e-	4e-
4AA	4A	4A	4A
4BB-	4B-	4B-	4B-
4r	4r	4r	4r
=145	=145	=145	=145
2.r	2.r	2.r	4cc
.	.	.	4f
.	.	.	4a-
4AA-	4F	[4B-	4d
=146	=146	=146	=146
4GG	4G	8B-]	8e-
.	.	4g	4b-
4D	2B-	.	.
.	.	8f	8a-
4E-	.	8f	8a-
.	.	8e-	8g
4BB-	4B-	4d	4f
=147	=147	=147	=147
4E-	4e-	4e-	4e-
4BB-	4B-	4B-	4B-
4AA	4A	4A	4A
4r	4r	4r	4r
=148	=148	=148	=148
4c	4cc	4cc	4cc
4E-	4e-	4e-	4e-
4D	4d	4d	4d
4r	4r	4r	4r
=149	=149	=149	=149
4r	4r	4r	4ff
4D	2B-	4f	4a-
4E-	.	2e-	4g
4AA-	4A-	.	4cc
=150	=150	=150	=150
2BB-	4.G	4.B-	4.e-
.	8A-	8d	8f
8EE-	4G	16r	4e-
.	.	16e-	.
8r	.	16g	.
.	.	16b-	.
8E-	4r	16a-	8r
.	.	16g	.
8r	.	16f	8gg
.	.	16e-	.
=151	=151	=151	=151
8F	2r	16r	16.aa-
.	.	16a-	.
.	.	.	32ff
8r	.	16b-	8dd
.	.	16a-	.
8BB-	.	16g	8r
.	.	16f	.
8r	.	16e-	8bb-
.	.	16d	.
8E-	[2B-	16r	8aa-
.	.	16b-	.
8r	.	16cc	8gg
.	.	16b-	.
8E-	.	16a-	8r
.	.	16g	.
8r	.	16f	8gg
.	.	16e-	.
=152	=152	=152	=152
8F	2B-]	16r	16.aa-
.	.	16a-	.
.	.	.	32ff
8r	.	16b-	8dd
.	.	16a-	.
8BB-	.	16g	8r
.	.	16f	.
8r	.	16e-	8bb-
.	.	16d	.
8E-	[2E-	16r	8aa-
.	.	16b-	.
8r	.	16cc	8gg
.	.	16b-	.
8E-	.	16a-	8r
.	.	16g	.
8r	.	16f	8ee-
.	.	16e-	.
=153	=153	=153	=153
8D-	2.E-]	16r	4.ee-
.	.	16b-	.
8r	.	16cc	.
.	.	16b-	.
8D-	.	16a-	.
.	.	16g	.
8r	.	16f	8ee-
.	.	16e-	.
8C	.	16r	16ee-
.	.	16a-	16aa-
8r	.	16cc	8ee-
.	.	16ee-	.
8AA-	4A-	16cc	8r
.	.	16a-	.
8r	.	16f	8cc
.	.	16e-	.
=154	=154	=154	=154
8BB-	[1B-	16r	4.b-
.	.	16d	.
8r	.	16f	.
.	.	16a-	.
8A-	.	16g	.
.	.	16f	.
8r	.	16e-	8b-
.	.	16d	.
8G	.	16r	16b-
.	.	16e-	16ee-
8r	.	16g	8b-
.	.	16b-	.
8E-	.	16a-	8r
.	.	16g	.
8r	.	16f	[8gg
.	.	16e-	.
=155	=155	=155	=155
8F	2B-]	16r	8gg]
.	.	16e-	.
8r	.	16d	4aa-
.	.	16e-	.
8BB-	.	16f	.
.	.	16g	.
8r	.	16a-	4dd
.	.	16f	.
8C	4c	16r	.
.	.	16a-	.
8r	.	16g	8ee-
.	.	16e-	.
8AA-	4A-	16d	8r
.	.	16c	.
8r	.	16B-	[8cc
.	.	16A-	.
=156	=156	=156	=156
8BB-	2B-	16r	8cc]
.	.	16A-	.
8r	.	16G	4b-
.	.	16B-	.
8BB-	.	16e-	.
.	.	16g	.
8r	.	16a-	4dd
.	.	16f	.
8BB	8B	16r	.
.	.	16a-	.
8C	8c	16g	8ee-
.	.	16e-	.
8AA-	4A-	16d	8r
.	.	16c	.
8r	.	16B-	[8cc
.	.	16A-	.
=157	=157	=157	=157
8BB-	4B-	16r	8cc]
.	.	16A-	.
8r	.	16G	4b-
.	.	16B-	.
8BB-	8G	16e-	.
.	.	16B-	.
8r	8F	16A-	8d
.	.	16B-	.
4EE-	4E-	4G	4e-
8r	8r	8r	8r
8D	8d	8f	8b-
=158	=158	=158	=158
4C	4A	4f	4ee-
8r	8r	8r	8r
8F	8A	8c	8e-
4BB-	4B-	4B-	4d
8r	8r	8r	8r
8G	8g	8b-	8ee-
=159	=159	=159	=159
4F	4f	4cc	4aa-
8r	8r	8r	8r
8BB-	8F	8A-	8d
4EE-	4E-	4G	4e-
4r	4r	4r	4r
==	==	==	==
*-	*-	*-	*-
!!!RWG1: This file contains only pitch and duration data.
!!!RWG2: Transposing instruments are not transposed.
!!!RWG3: Spines may have incompatible meters.
!!!RWG4: Durations of rests and tied notes may be interpreted.
!!!RWG: Key is interpreted using the Humdrum key tool.
!!!AFT: stage1
!!!END: 1997/04/15
!!!KEY: 2845833395
!!!EMD: Converted from MuseData to Humdrum Dec 16, 2000, by Andreas Kornstaedt using muse2kern.
!!!EMD: Manual editing by Craig Sapp, Nov 2001
